X: 19
M:6/8
L:1/8
K:D
[A3c3a3] [A3c3g3]|fdf ecA|d2 f ecA|d2f ecA|
dcd ede|fef gfg|a2 d c2 B|A3 A3|

